usr/share/icons/biglinux-icons-material-dark/22/actions/go-previous-use.svg

<svg xmlns="http://www.w3.org/2000/svg" viewBox="0 0 22 22">
<defs id="defs3051">
<style id="current-color-scheme" type="text/css">
.ColorScheme-Text{color:#dedede}
</style>
</defs>
<path d="M3 3v7h16V3zm1 1h14v5H4zm15 7-5 4 5 4zM3 12v3h4v-3zm6 0v3h2v-3z" class="ColorScheme-Text" style="fill:currentColor;fill-opacity:1;stroke:none"/>
</svg>

<svg xmlns="http://www.w3.org/2000/svg" viewBox="0 0 22 22">
  <defs id="defs3051">
    <style type="text/css" id="current-color-scheme">
      .ColorScheme-Text {
        color:#dedede;
      }
      </style>
  </defs>
 <path 
     style="fill:currentColor;fill-opacity:1;stroke:none" 
     d="M 3 3 L 3 9 L 3 10 L 18 10 L 19 10 L 19 4 L 19 3 L 18 3 L 4 3 L 3 3 z M 4 4 L 18 4 L 18 9 L 4 9 L 4 4 z M 19 11 L 14 15 L 19 19 L 19 11 z M 3 12 L 3 15 L 7 15 L 7 12 L 3 12 z M 9 12 L 9 15 L 11 15 L 11 12 L 9 12 z "
     class="ColorScheme-Text"
     />
</svg>
